X: 41233
T: Trowie Burn, The
R: waltz
M: 3/4
K: Eminor
G4A2|B<ee2d2|B2>A2G2|A4c2|B4A2|A2>G2A2|B4A2|G<EE4|
G4A2|B<ee2d2|B2>A2G2|B2>c2d2|d<ee2E2|B4A2|G<EE4|D<EE4:|
g4a2|b2>a2f2|g4d2|B<GG4|A4c2|B4A2|A2>G2A2|B4A2|G<EE4|
[1g4a2|b2>a2f2|g4d2|B<GG4|B2>c2d2|d<ee2E2|B4A2|G<EE4|D<EE4:|
[2G4A2|B<ee2d2|B2>A2G2|B2>c2d2|d<ee2E2|B4A2|G<EE4|D<EE2||

